X: 0136
T: Quadrille Country Dance - 8x32R
P: Wetherell
C: Nan Main
B: Miss Milligan's Miscellany v.1 #36
B: Originally Ours v.1 p.178 #MMM-0136
Z: 2019 John Chambers <jc:trillian.mit.edu>
M: 4/4
L: 1/8
R: reel
K: G
%
|: (3def |\
"G"g2d2 "D/G"d2G2 | "F#/D7"ABcd "D"e3f | "G"g2fe "D7"dcBA | "G"G6 (3def |\
"G"g2d2 dcBG | "Am"ABcd "D7"e3f | "G"g2fe "D7"dcBA | "G"G6 ||
d2 |\
"G"d2g2 "D/G"d2B2 | "D7"c'bag "F#/D7"a2gf | "E/C"e2c'2 "D/G"d2b2 | "C#/A7"agfe "D"d2cB |\
"F#/D7"c2a2 "D7"A2f2 | "G"B2g2 "Em"G2e2 | "Am"cdea "D"fgad' | "G"g6 |]
